Yaru++/actions/16/object-ungroup.svg

<svg height="16" viewBox="0 0 16 16" width="16" xmlns="http://www.w3.org/2000/svg"><path d="m0-.00000021v3.00000021h1v-2h2v-1zm13 .00000021v1h2v2h1v-3.00000021zm-8.5 1.9999998c-1.3807118 0-2.5 1.1192882-2.5 2.5s1.1192882 2.5 2.5 2.5 2.5-1.1192882 2.5-2.5-1.1192882-2.5-2.5-2.5zm4.5 0v5h5v-5zm-6 7v5.0000002h3v-5.0000002zm8.5 0-2.5 5.0000002h5zm-11.5 4.0000002v3h3v-1h-2v-2zm15 0v2h-2v1h3v-3z" fill="#808080" stroke-width=".8"/></svg>

<?xml version="1.0" encoding="UTF-8" standalone="no"?>
<svg
   xmlns:dc="http://purl.org/dc/elements/1.1/"
   xmlns:cc="http://creativecommons.org/ns#"
   xmlns:rdf="http://www.w3.org/1999/02/22-rdf-syntax-ns#"
   xmlns:svg="http://www.w3.org/2000/svg"
   xmlns="http://www.w3.org/2000/svg"
   xmlns:sodipodi="http://sodipodi.sourceforge.net/DTD/sodipodi-0.dtd"
   xmlns:inkscape="http://www.inkscape.org/namespaces/inkscape"
   version="1.1"
   viewBox="0 0 16 16"
   id="svg7"
   sodipodi:docname="object-ungroup.svg"
   width="16"
   height="16"
   inkscape:version="0.92.4 (5da689c313, 2019-01-14)">
  <metadata
     id="metadata11">
    <rdf:RDF>
      <cc:Work
         rdf:about="">
        <dc:format>image/svg+xml</dc:format>
        <dc:type
           rdf:resource="http://purl.org/dc/dcmitype/StillImage" />
        <dc:title></dc:title>
      </cc:Work>
    </rdf:RDF>
  </metadata>
  <sodipodi:namedview
     pagecolor="#ffffff"
     bordercolor="#666666"
     borderopacity="1"
     objecttolerance="10"
     gridtolerance="10"
     guidetolerance="10"
     inkscape:pageopacity="0"
     inkscape:pageshadow="2"
     inkscape:window-width="1920"
     inkscape:window-height="1016"
     id="namedview9"
     showgrid="true"
     inkscape:zoom="52.4375"
     inkscape:cx="8"
     inkscape:cy="6.4743743"
     inkscape:window-x="0"
     inkscape:window-y="27"
     inkscape:window-maximized="1"
     inkscape:current-layer="svg7">
    <inkscape:grid
       type="xygrid"
       id="grid818" />
  </sodipodi:namedview>
  <defs
     id="defs3">
    <style
       id="current-color-scheme"
       type="text/css">
   .ColorScheme-Text { color:#808080; }
  </style>
  </defs>
  <path
     style="color:#808080;fill:currentColor;stroke-width:0.80000001"
     class="ColorScheme-Text"
     d="M 0,-2.1e-7 V 3 H 1 V 1 H 3 V 0 Z M 13,0 v 1 h 2 v 2 h 1 V -2.1e-7 Z M 4.5,1.9999998 c -1.3807118,0 -2.5,1.1192882 -2.5,2.5 0,1.3807118 1.1192882,2.5 2.5,2.5 1.3807118,0 2.5,-1.1192882 2.5,-2.5 0,-1.3807118 -1.1192882,-2.5 -2.5,-2.5 z m 4.5,0 v 5 h 5 v -5 z m -6,7 V 14 H 6 V 8.9999998 Z m 8.5,0 L 9,14 h 5 z M 0,13 v 3 H 3 V 15 H 1 v -2 z m 15,0 v 2 h -2 v 1 h 3 v -3 z"
     id="path5"
     inkscape:connector-curvature="0"
     sodipodi:nodetypes="ccccccccccccccssssscccccccccccccccccccccccccccc" />
</svg>
